modules/entypo/icons/facebook-squared.svg

<svg height="1000px" width="860px" xmlns="http://www.w3.org/2000/svg">
  <g>
    <path d="M752 80c29.333 0 54.667 10.333 76 31c21.333 20.667 32 45.667 32 75c0 0 0 646 0 646c0 29.333 -10.667 54.667 -32 76c-21.333 21.333 -46.667 32 -76 32c0 0 -162 0 -162 0c0 0 0 -310 0 -310c0 0 114 0 114 0c0 0 0 -134 0 -134c0 0 -114 0 -114 0c0 0 0 -70 0 -70c0 -20 9.333 -30 28 -30c0 0 86 0 86 0c0 0 0 -152 0 -152c0 0 -96 0 -96 0c-49.333 0 -90.667 18 -124 54c-33.333 36 -50 80 -50 132c0 0 0 66 0 66c0 0 -104 0 -104 0c0 0 0 134 0 134c0 0 104 0 104 0c0 0 0 310 0 310c0 0 -326 0 -326 0c-29.333 0 -54.667 -10.667 -76 -32c-21.333 -21.333 -32 -46.667 -32 -76c0 0 0 -646 0 -646c0 -29.333 10.667 -54.333 32 -75c21.333 -20.667 46.667 -31 76 -31c0 0 644 0 644 0c0 0 0 0 0 0" />
  </g>
</svg>

<svg height="1000" width="860" xmlns="http://www.w3.org/2000/svg"><path d="M752 80c29.333 0 54.667 10.333 76 31s32 45.667 32 75v646c0 29.333-10.667 54.667-32 76s-46.667 32-76 32H590V630h114V496H590v-70c0-20 9.333-30 28-30h86V244h-96c-49.333 0-90.667 18-124 54s-50 80-50 132v66H330v134h104v310H108c-29.333 0-54.667-10.667-76-32S0 861.333 0 832V186c0-29.333 10.667-54.333 32-75s46.667-31 76-31h644"/></svg>
